resources/haticons/SVG/plus_one.svg

<!-- Generated by IcoMoon.io -->
<svg version="1.1" xmlns="http://www.w3.org/2000/svg" width="24" height="24" viewBox="0 0 24 24">
<title>plus_one</title>
<path d="M14.484 6.094l4.5-1.078v12.984h-1.969v-10.594l-2.531 0.516v-1.828zM9.984 8.016v3.984h4.031v2.016h-4.031v3.984h-1.969v-3.984h-4.031v-2.016h4.031v-3.984h1.969z"></path>
</svg>

<svg xmlns="http://www.w3.org/2000/svg" width="24" height="24"><path d="M14.484 6.094l4.5-1.078V18h-1.969V7.406l-2.531.516V6.094zm-4.5 1.922V12h4.031v2.016H9.984V18H8.015v-3.984H3.984V12h4.031V8.016h1.969z"/></svg>
